X: 1
T: Cheticamp, The
M: 6/8
L: 1/8
R: jig
K: Amaj
|: a2 b | 
c'2 a e2 c | A3 AEC | A,CE Aca | g3 g2 a |
f2 d B2 A | G3 G2 F |1 EGB EGB | c2 e :|
2 EFE EFG | A3 ||
|: C2 B, | 
A,2 C E2 A | c3 c2 e | cAe cAc | B3 BGF |
E2 G B2 c | d3 f a2 | gfe dcB |1 c3 :|
2 A3 ||
|: a2 b | 
c'2 a e2 c | A3 AEc | Ace Aca | g3 g2 a |
f2 d B2 A | G3 G2 F |1 EGB EGB | c2 e :|
2 EFE EFG | A3 ||
|: c2 B | 
A2 c e2 a | c3 c2 e | cAe cAc | B3 BGF |
E2 G B2 c | d3 f a2 | gfe dcB |1 c3 :|
2 A3 ||
